X:1
T:Only Believe
T:Paul Rader, 1921
T:Only Believe
T:Public Domain
T:Public Domain
C:Paul Rader, 1921
Z:Public Domain
%%score ( 1 2 ) 3
L:1/8
M:3/4
K:Db
V:1 treble 
V:2 treble 
V:3 bass 
V:1
 [FA]2 | [FA]4 [=E=G][FA] | [DF]4 ([DF][DF]) | [DF]4 [D=E][DF] | [FA]4 [FA]2 | [GB]4 [Ac][GB] | %6
w: 1.~Fear|not, lit- tle|flock, from~the *|cross to the|throne, From|death in- to|
w: 2.~Fear|not, lit- tle|flock, He *|go- eth a-|head, Your|Shep- herd se-|
w: 3.~Fear|not, lit- tle|flock, what- *|ev- er your|lot, He|en- ters all|
 [FA]4 ([DF][DF]) | [DF]4 [B,E][B,D] | [CE]4 [CA]2 | [FA]2 [=E=G]2 [_E_G]2 | [DF]4 ([DF][DF]) | %11
w: life He *|went for His|own; All|pow- er in|earth, all *|
w: lect- eth~the *|path you must|tread; The|wa- ters of|Mar- ah~He’ll *|
w: rooms, “the *|doors be- ing|shut,” He|ne- ver for-|sakes; He *|
 [DF]2 [DG]2 [DA]2 | [DB]4 [GB]2 | [Gd]2 [Gc]3 [GB] | [FA]4 [GB][Dd] | [DF]2 [CF]2 [CE]2 | D6 || %17
w: pow- er a-|bove, Is|giv- en to|Him for the|flock of His|love.|
w: sweet- en for|thee, He|drank all the|bit- ter in|Geth- sem- a-|ne.|
w: ne- ver is|gone, So|count on His|pre- sence in|dark- ness and|dawn.|
[M:6/4]"^Refrain" [FA]3 [=E=G] [FA]2 [DF]6 | [Fd]3 [Ec] [Fd]2 [GB]6 | %19
w: ||
w: ||
w: ||
 [FA]2 [FA]2 [GB]2 [FA][DF] [DF]4 | [DF]2 [DE]2 [DF]2 [CE]6 | [DA]3 [D=G] [DA]2 [DF]6 | %22
w: |||
w: |||
w: |||
 [Fd]3 [Gc] [Ad]2 [GB]6 | [Gd]2 [Gc]2 [GB]2 [FA][DF] [DF]4 | [DA]2 [DG]3 [CE] D4 |] %25
w: |||
w: |||
w: |||
V:2
 x2 | x6 | x6 | x6 | x6 | x6 | x6 | x6 | x6 | x6 | x6 | x6 | x6 | x6 | x6 | x6 | D6 ||[M:6/4] x12 | %18
 x12 | x12 | x12 | x12 | x12 | x12 | x6 D4 |] %25
V:3
 [D,D]2 | [D,D]4 [D,B,][D,A,] | [D,A,]4 ([D,A,][D,A,]) | [D,A,]4 [D,=G,][D,A,] | [D,D]4 [D,D]2 | %5
w: ~|~ ~ ~|~ ~ *|~ ~ ~|~ ~|
 [G,D]4 [G,D][G,D] | [D,D]4 ([D,A,][D,A,]) | [B,,A,]4 [E,=G,][E,G,] | [A,,A,]4 [A,,A,]2 | %9
w: ~ ~ ~|~ ~ *|~ ~ ~|~ ~|
 [D,A,]2 [D,B,]2 [D,B,]2 | [D,A,]4 ([D,A,][D,A,]) | [D,A,]2 [E,A,]2 [F,A,]2 | G,4 [G,D]2 | %13
w: ~ ~ ~|~ ~ *|~ ~ ~|~ ~|
 [G,B,]2 [G,C]3 [G,D] | [D,D]4 [G,D][G,B,] | A,2 [A,,A,]2 [A,,G,]2 | [D,F,]6 || %17
w: ~ ~ ~|~ ~ ~|~ ~ ~|~|
[M:6/4] [D,D]3 [D,D] [D,D]2 [D,A,]6 | [D,A,]3 [D,A,] [D,D]2 [G,D]6 | %19
w: On- ly be- lieve,|on- ly be- lieve;|
 [D,D]2 [D,D]2 [D,D]2 [D,D][D,A,] [D,A,]4 | [B,,=G,]2 [B,,G,]2 [E,G,]2 [A,,A,]6 | %21
w: All things are pos- si- ble,|on- ly be- lieve,|
 [D,F,]3 [D,=E,] [D,F,]2 [D,A,]6 | [D,A,]3 [E,A,] [F,D]2 [G,D]6 | %23
w: On- ly be- lieve,|on- ly be- lieve;|
 [G,B,]2 [G,C]2 [G,D]2 [D,D][D,A,] [D,A,]4 | [A,,F,]2 [A,,E,]3 [A,,G,] [D,F,]4 |] %25
w: All things are pos- si- ble,|on- ly be- lieve.|

